images_sukapura_svg/cmd/lc_objectalignright.svg

<svg viewBox="0 0 24 24" xmlns="http://www.w3.org/2000/svg" xmlns:xlink="http://www.w3.org/1999/xlink"><linearGradient id="a" gradientTransform="matrix(.70710678 -.70710678 .70710678 .70710678 -47.242641 8.171573)" gradientUnits="userSpaceOnUse" x1="3.603992" x2="10.82254" xlink:href="#b" y1="9.8696" y2="2.486927"/><linearGradient id="b" gradientTransform="translate(75 -7)" gradientUnits="userSpaceOnUse" x1="14" x2="13.79661" y1="22" y2="2.135593"><stop offset="0" stop-color="#0040dd"/><stop offset="1" stop-color="#0a84ff"/></linearGradient><linearGradient id="c" gradientTransform="translate(3 -5.005054)" gradientUnits="userSpaceOnUse" x1="5.5" x2="5.371094" xlink:href="#b" y1="12.340992" y2="6.559742"/><g transform="matrix(0 -1 1 0 -1 25)"><path d="m7.5 19.5v-10h-5v10z" fill="#fc0" stroke="#e4b500" stroke-linecap="round" stroke-linejoin="round" stroke-opacity=".998039"/><path d="m8.484375 1a.50085546.50085546 0 0 0 -.3378906.1464844l-3 3a.50085546.50085546 0 0 0 0 .7070312l3 3a.50085546.50085546 0 0 0 .8535156-.3535156v-1.5h6.5c.276999 0 .5-.223.5-.5v-2c0-.277-.223001-.5-.5-.5h-6.5v-1.5a.50085546.50085546 0 0 0 -.515625-.5z" fill="url(#c)" transform="matrix(0 -1 -1 0 25 25)"/><rect fill="#69696e" height="1" ry=".5" width="20" x="2" y="21"/><path d="m15.5 19.5v-16h-5v16z" fill="#fff" stroke="#98989d" stroke-linecap="round" stroke-linejoin="round"/></g><path d="m-43 9.5857868 1.414213 1.4142132 5.656854-5.6568539a4 4 0 0 1 5.656855 0 4 4 0 0 1 0 5.6568539c-.391737.391738-.391737 1.022477 0 1.414214s1.022476.391737 1.414214 0a6 6 0 0 0 0-8.4852815 6 6 0 0 0 -8.485282 0z" fill="url(#a)"/></svg>

<?xml version="1.0" encoding="UTF-8" standalone="no"?>
<svg
   xmlns:dc="http://purl.org/dc/elements/1.1/"
   xmlns:cc="http://creativecommons.org/ns#"
   xmlns:rdf="http://www.w3.org/1999/02/22-rdf-syntax-ns#"
   xmlns:svg="http://www.w3.org/2000/svg"
   xmlns="http://www.w3.org/2000/svg"
   xmlns:xlink="http://www.w3.org/1999/xlink"
   xmlns:sodipodi="http://sodipodi.sourceforge.net/DTD/sodipodi-0.dtd"
   xmlns:inkscape="http://www.inkscape.org/namespaces/inkscape"
   viewBox="0 0 24 24"
   version="1.1"
   id="svg16"
   sodipodi:docname="lc_objectalignright.svg"
   inkscape:export-filename="/home/rizmut/Dokumen/Rizmut/Github/libreoffice-style-sukapura/images_sukapura/cmd/lc_objectalignleft.png"
   inkscape:export-xdpi="96"
   inkscape:export-ydpi="96"
   inkscape:version="0.92.3 (unknown)">
  <metadata
     id="metadata22">
    <rdf:RDF>
      <cc:Work
         rdf:about="">
        <dc:format>image/svg+xml</dc:format>
        <dc:type
           rdf:resource="http://purl.org/dc/dcmitype/StillImage" />
        <dc:title></dc:title>
      </cc:Work>
    </rdf:RDF>
  </metadata>
  <defs
     id="defs20">
    <linearGradient
       gradientTransform="rotate(-45,-13.757359,61.112699)"
       inkscape:collect="always"
       xlink:href="#a-367"
       id="linearGradient855"
       x1="3.6039922"
       y1="9.8696003"
       x2="10.82254"
       y2="2.4869266"
       gradientUnits="userSpaceOnUse" />
    <linearGradient
       gradientTransform="translate(75,-7)"
       id="a-367"
       gradientUnits="userSpaceOnUse"
       x1="14"
       x2="13.79661"
       y1="22"
       y2="2.1355929">
      <stop
         offset="0"
         stop-color="#0040dd"
         id="stop2206" />
      <stop
         offset="1"
         stop-color="#0a84ff"
         id="stop2208" />
    </linearGradient>
    <linearGradient
       inkscape:collect="always"
       xlink:href="#a-367"
       id="linearGradient851"
       x1="5.5"
       y1="12.340992"
       x2="5.3710938"
       y2="6.5597415"
       gradientUnits="userSpaceOnUse"
       gradientTransform="translate(3,-5.005054)" />
    <clipPath
       clipPathUnits="userSpaceOnUse"
       id="clipPath962">
      <path
         id="path964"
         d="m 4,11 h 8 v 3 H 4 Z"
         style="fill:#000000;fill-opacity:1"
         inkscape:connector-curvature="0" />
    </clipPath>
  </defs>
  <sodipodi:namedview
     pagecolor="#ffffff"
     bordercolor="#666666"
     borderopacity="1"
     objecttolerance="10"
     gridtolerance="10"
     guidetolerance="10"
     inkscape:pageopacity="0"
     inkscape:pageshadow="2"
     inkscape:window-width="1366"
     inkscape:window-height="706"
     id="namedview18"
     showgrid="true"
     inkscape:zoom="16"
     inkscape:cx="9.7289496"
     inkscape:cy="11.504201"
     inkscape:window-x="0"
     inkscape:window-y="0"
     inkscape:window-maximized="1"
     inkscape:current-layer="g14">
    <inkscape:grid
       type="xygrid"
       id="grid829"
       spacingx="0.5"
       spacingy="0.5"
       empspacing="2" />
  </sodipodi:namedview>
  <g
     transform="matrix(0 -1 -1 0 25 25)"
     id="g14">
    <g
       id="g2449"
       transform="matrix(1,0,0,-1,0,26)">
      <path
         style="fill:#ffcc00;fill-opacity:1;stroke:#e4b500;stroke-linecap:round;stroke-linejoin:round;stroke-opacity:0.99803922"
         id="path2"
         d="m 7.5,19.5 v -10 h -5 v 10 z"
         inkscape:connector-curvature="0" />
      <path
         id="path4"
         transform="matrix(0,-1,-1,0,25,25)"
         d="M 8.484375,1 A 0.50085546,0.50085546 0 0 0 8.1464844,1.1464844 l -3,3 a 0.50085546,0.50085546 0 0 0 0,0.7070312 l 3,3 A 0.50085546,0.50085546 0 0 0 9,7.5 V 6 h 6.5 C 15.776999,6 16,5.777 16,5.5 v -2 C 16,3.223 15.776999,3 15.5,3 H 9 V 1.5 A 0.50085546,0.50085546 0 0 0 8.484375,1 Z"
         style="fill:url(#linearGradient851);fill-opacity:1;stroke:none;stroke-linecap:round;stroke-linejoin:round"
         inkscape:connector-curvature="0" />
      <rect
         style="fill:#69696e;fill-opacity:1"
         id="rect10"
         y="21"
         x="2"
         width="20"
         ry="0.5"
         height="1" />
      <path
         style="fill:#ffffff;stroke:#98989d;stroke-linecap:round;stroke-linejoin:round;stroke-opacity:1"
         id="path12"
         d="m 15.5,19.5 v -16 h -5 v 16 z"
         inkscape:connector-curvature="0" />
    </g>
  </g>
  <path
     inkscape:connector-curvature="0"
     id="path9"
     d="M -43,9.5857868 -41.585787,11 -35.928933,5.3431461 a 4,4 0 0 1 5.656855,0 4,4 0 0 1 0,5.6568539 c -0.391737,0.391738 -0.391737,1.022477 0,1.414214 0.391737,0.391737 1.022476,0.391737 1.414214,0 a 6,6 0 0 0 0,-8.4852815 6,6 0 0 0 -8.485282,0 z"
     style="fill:url(#linearGradient855);fill-opacity:1" />
</svg>
